X:1
T: Sir Walter Scott Bart.
C:William Marshall
R:Strathspey
Q: 128
K:Bb
M:4/4
L:1/16
|:B3d b3a gfed c4|B3d b3c' d'2f2 g2b2|B3d b3a gfed c4|B3D A,2f2 edcB d2f2|
B3d b3a gfed c4|B3d b3c' d'2f2 g2b2|B3d b3a gfed c4|B3D A,2f2 edcB d2f2|
d3B F3f edcB G4|B,2B2 D2f2 edcB d2F2|g3f gabd fede c4|F3G1/2A1/2 B3((3def) edcB d2f2|
d3B F3f edcB G4|B,2B2 D2f2 edcB d2F2|g3f gabd fede c4|F3G1/2A1/2 B3((3def) edcB d2f2:|
